img/logo-twitter-2.svg

<svg fill="none" height="32" viewBox="0 0 32 32" width="32" xmlns="http://www.w3.org/2000/svg" xmlns:xlink="http://www.w3.org/1999/xlink"><clipPath id="a"><path d="m0 0h32v32h-32z"/></clipPath><g clip-path="url(#a)"><path d="m28.7831 9.45708c.0194.28.0194.56002.0194.84262 0 8.6103-6.5549 18.5406-18.5407 18.5406v-.0052c-3.54062.0052-7.00772-1.009-9.988362-2.9212.514838.0619 1.032262.0929 1.550972.0942 2.93419.0025 5.78451-.982 8.0929-2.7949-2.78839-.0529-5.23355-1.871-6.08774-4.5251.97677.1883 1.98322.1496 2.94193-.1123-3.04-.6142-5.22709-3.2852-5.22709-6.3871v-.0826c.9058.5045 1.92.7845 2.95741.8155-2.86322-1.9136-3.745802-5.72258-2.01677-8.70065 3.30839 4.07097 8.18965 6.54585 13.42965 6.80775-.5251-2.26323.1923-4.63484 1.8852-6.22581 2.6245-2.4671 6.7522-2.34065 9.2193.28258 1.4594-.28774 2.8581-.82323 4.1381-1.58194-.4864 1.50839-1.5045 2.78968-2.8645 3.60387 1.2916-.15225 2.5535-.49806 3.7419-1.0258-.8748 1.31097-1.9767 2.4529-3.2516 3.37548z" fill="#fff"/></g></svg>

<svg width="32" height="32" viewBox="0 0 32 32" fill="none" xmlns="http://www.w3.org/2000/svg">
<g clip-path="url(#clip0_3470_10880)">
<path d="M28.7831 9.45708C28.8025 9.73708 28.8025 10.0171 28.8025 10.2997C28.8025 18.91 22.2476 28.8403 10.2618 28.8403V28.8351C6.72118 28.8403 3.25408 27.8261 0.273438 25.9139C0.788276 25.9758 1.3057 26.0068 1.82441 26.0081C4.7586 26.0106 7.60892 25.0261 9.91731 23.2132C7.12892 23.1603 4.68376 21.3422 3.82957 18.6881C4.80634 18.8764 5.81279 18.8377 6.7715 18.5758C3.7315 17.9616 1.54441 15.2906 1.54441 12.1887V12.1061C2.45021 12.6106 3.46441 12.8906 4.50182 12.9216C1.6386 11.008 0.756018 7.19902 2.48505 4.22095C5.79344 8.29192 10.6747 10.7668 15.9147 11.0287C15.3896 8.76547 16.107 6.39386 17.7999 4.80289C20.4244 2.33579 24.5521 2.46224 27.0192 5.08547C28.4786 4.79773 29.8773 4.26224 31.1573 3.50353C30.6709 5.01192 29.6528 6.29321 28.2928 7.1074C29.5844 6.95515 30.8463 6.60934 32.0347 6.0816C31.1599 7.39257 30.058 8.5345 28.7831 9.45708Z" fill="white"/>
</g>
<defs>
<clipPath id="clip0_3470_10880">
<rect width="32" height="32" fill="white"/>
</clipPath>
</defs>
</svg>
